src/assets/svg/additional/5-github.svg

<svg width="27" height="27" viewBox="0 0 27 27" fill="none" xmlns="http://www.w3.org/2000/svg">
<g opacity="0.8">
<g clip-path="url(#clip0_114_465)">
<path d="M26.9921 0.00012207H0.00791016C0.0035415 0.00012207 0 0.00366357 0 0.00803223V26.9922C0 26.9966 0.0035415 27.0001 0.00791016 27.0001H26.9921C26.9965 27.0001 27 26.9966 27 26.9922V0.00803223C27 0.00366357 26.9965 0.00012207 26.9921 0.00012207Z" fill="#161414"/>
<path d="M17.666 26.3146C18.4042 26.3146 18.2988 27.2111 18.2988 27.2111H8.70112C8.70112 27.2111 8.59565 26.3146 9.33394 26.3146C10.0195 26.3146 10.1777 25.9982 10.1777 25.6818L10.125 23.0451C6.38081 23.8888 5.5898 21.5685 5.5898 21.5685C4.95698 19.9865 4.11323 19.6173 4.11323 19.6173C2.84761 18.7736 4.16597 18.7736 4.16597 18.7736C5.53706 18.8791 6.27534 20.1447 6.27534 20.1447C7.4355 22.2013 9.38667 21.6213 10.1777 21.3048C10.2832 20.4084 10.6523 19.8283 11.0214 19.4591C8.01558 19.1427 4.90425 17.9826 4.90425 12.8146C4.90425 11.3381 5.43159 10.1252 6.27534 9.17594C6.11714 8.85954 5.69526 7.48844 6.43355 5.64274C6.43355 5.64274 7.54097 5.2736 10.125 7.01383C12.3398 6.38102 14.6601 6.38102 16.875 7.01383C19.4589 5.2736 20.5664 5.64274 20.5664 5.64274C21.3046 7.48844 20.8828 8.85954 20.7246 9.17594C21.5683 10.1252 22.0957 11.3381 22.0957 12.8146C22.0957 17.9826 18.9316 19.1427 15.9257 19.4591C16.4531 19.881 16.875 20.7248 16.875 21.9904L16.8222 25.6818C16.8222 25.9982 16.9804 26.3146 17.666 26.3146Z" fill="#E2E2E2"/>
</g>
</g>
<defs>
<clipPath id="clip0_114_465">
<rect y="0.00012207" width="27" height="27" rx="2" fill="white"/>
</clipPath>
</defs>
</svg>

<svg xmlns="http://www.w3.org/2000/svg" width="27" height="27" fill="none"><g clip-path="url(#a)" opacity=".8"><path fill="#161414" d="M26.992 0H.008A.008.008 0 0 0 0 .008v26.984c0 .005.004.008.008.008h26.984a.008.008 0 0 0 .008-.008V.008A.008.008 0 0 0 26.992 0Z"/><path fill="#E2E2E2" d="M17.666 26.315c.738 0 .633.896.633.896H8.7s-.105-.896.633-.896c.686 0 .844-.317.844-.633l-.053-2.637c-3.744.844-4.535-1.477-4.535-1.477-.633-1.582-1.477-1.95-1.477-1.95-1.265-.844.053-.844.053-.844 1.371.105 2.11 1.37 2.11 1.37 1.16 2.057 3.11 1.477 3.902 1.16.105-.896.474-1.476.843-1.845-3.005-.316-6.117-1.476-6.117-6.644 0-1.477.528-2.69 1.371-3.64-.158-.315-.58-1.687.159-3.532 0 0 1.107-.37 3.691 1.37a12.237 12.237 0 0 1 6.75 0c2.584-1.74 3.691-1.37 3.691-1.37.739 1.845.317 3.217.159 3.533.843.95 1.37 2.162 1.37 3.639 0 5.168-3.163 6.328-6.17 6.644.528.422.95 1.266.95 2.531l-.053 3.692c0 .316.158.633.844.633Z"/></g><defs><clipPath id="a"><rect width="27" height="27" fill="#fff" rx="2"/></clipPath></defs></svg>
